X:1
T:The Light of Bethlehem
T:Franz Wilhelm Abt (1819-1885)
T:The Light of Bethlehem
T:Public Domain
T:Public Domain
T:Public Domain
C:Franz Wilhelm Abt (1819-1885)
Z:Public Domain
%%score ( 1 2 ) 3 4 5
L:1/8
M:4/4
K:E
V:1 treble 
V:2 treble 
V:3 treble 
V:4 treble 
V:5 bass 
V:1
 G2 | G3 G B2 B2 | e4 G2 G2 | c3 c B2 A2 | G6 G2 | B3 B B2 B2 | ^A2 B2 c2 d2 | e3 c B2 ^A2 | %8
w: 1.~’Tis|Christ- mas night, the|pure snow a|flock un- num- bered|lies; The|old Ju- de- an|flocks a- glow keep|watch with- in the|
w: 2.~A|mys- tery deep- er|still folds the|won- dering hosts of|light, Till,|lo, with ho- ly|rev- erence pale, that|dims each di- a-|
 B6 B2 | B2 f2 (ed)(cB) | B2 d2 B2 B2 | B2 f2 (ed)(cB) | B2 e2 B2 B2 | c3 c d3 d | e6 G2 | %15
w: skies An|ic- y still- * ness *|clos- er holds the|puls- es of * the *|breath- less night, And|all the Christ- mas|night, the|
w: dem, The|lord- liest earth- * ward *|bend- ing, hail the|liv- ing light * of *|Beth- le- hem, Glad|Beth- lehem’s liv- ing|light, the|
 [EA]3 [EA] [GB]3 [GB] | [Ac]8- | [Ac]2 z2 [Ac]4 | [AB]4 [GB]4 | (A2 G2) (d2 e2) | [GB]4 [AB]4 | %21
w: an- gel stars shine|bright|* For|Beth- lehem’s|light, * for *|light. *|
w: ho- ly Christ- mas|light,|* Glad|Beth- lehem’s|light, * the *|light. *|
 [GB]6 |] %22
w: |
w: |
V:2
 x2 | x8 | x8 | x8 | x8 | x8 | x8 | x8 | x8 | x8 | x8 | x8 | x8 | x8 | x8 | x8 | x8 | x8 | x8 | %19
w: |||||||||||||||||||
w: |||||||||||||||||||
 c4 F4 | x8 | x6 |] %22
w: Beth- lehem’s|||
w: liv- ing|||
V:3
 E2 | E3 E F2 F2 | E4 E2 E2 | E3 E D2 F2 | E6 G2 | G3 G F2 F2 | E2 D2 F2 B2 | G3 G F2 E2 | %8
 D4 F2 G2 | A6 A2 | G6 G2 | A6 A2 | G2 B2 G2 G2 | A3 c ^B3 B | c6 E2 | C3 C E3 E | A8- | %17
 A2 z2 F2 E2 | D4 E4 | A,4 ^A,4 | B,2 E4 D2 | E6 |] %22
V:4
 E2 | E3 E D2 D2 | C4 C2 B,2 | A,3 A, B,2 D2 | E6 E2 | E3 E D2 D2 | C2 B,2 ^A,2 B,2 | E3 E D2 C2 | %8
 (B,2 B,2 D2) E2 | F2 D2 B2 B,2 | B,2 G2 FEDC | D2 B,2 B2 B,2 | E2 G2 FEDE | A3 A G3 G | C6 E2 | %15
 x8 | x8 | x8 | x8 | x8 | x8 | x6 |] %22
V:5
 E,2 | E,3 E, D,2 D,2 | C,4 C,2 B,,2 | A,,3 A,, B,,2 D,2 | E,6 E,2 | E,3 E, D,2 D,2 | %6
 C,2 B,,2 ^A,,2 B,,2 | E,3 E, D,2 C,2 | (B,,2 B,,2 D,2) E,2 | F,2 D,2 B,2 B,,2 | %10
 B,,2 G,2 F,E,D,C, | D,2 B,,2 B,2 B,,2 | E,2 G,2 F,E,D,E, | A,,3 A,, G,,3 G,, | C,6 z2 | z8 | z8 | %17
 z8 | z8 | z4 F,4 | B,4 [E,B,]4 | [E,G,B,]6 |] %22

